site/static/docs/images/icons/dashboards.svg

<svg fill="none" height="26" viewBox="0 0 26 26" width="26" xmlns="http://www.w3.org/2000/svg"><g fill="#0075ff"><circle cx="13" cy="13" opacity=".15" r="13"/><path clip-rule="evenodd" d="m21 15.25v-7.5c0-.9665-.7835-1.75-1.75-1.75h-12.5c-.9665 0-1.75.7835-1.75 1.75v7.5c0 .9665.7835 1.75 1.75 1.75h3.727c-.0991 1.041-.52017 1.8724-1.29207 2.7568-.19339.2216-.23941.5358-.11771.8036.1217.2677.38867.4396.68278.4396h6.5c.2941 0 .5611-.1719.6828-.4396.1217-.2678.0757-.582-.1177-.8036-.7719-.8844-1.193-1.7158-1.2921-2.7568h3.727c.9665 0 1.75-.7835 1.75-1.75zm-1.5-7.5v7.5c0 .1381-.1119.25-.25.25h-12.5c-.13807 0-.25-.1119-.25-.25v-7.5c0-.13807.11193-.25.25-.25h12.5c.1381 0 .25.11193.25.25zm-5.4822 9.25h-2.0356c-.0683.9377-.3312 1.7473-.7649 2.5h3.5654c-.4337-.7527-.6966-1.5623-.7649-2.5z" fill-rule="evenodd"/></g></svg>

<svg width="26" height="26" viewBox="0 0 26 26" fill="none" xmlns="http://www.w3.org/2000/svg">
<circle opacity="0.15" cx="13" cy="13" r="13" fill="#0075ff"/>
<path fill-rule="evenodd" clip-rule="evenodd" d="M21 15.25V7.75C21 6.7835 20.2165 6 19.25 6H6.75C5.7835 6 5 6.7835 5 7.75V15.25C5 16.2165 5.7835 17 6.75 17H10.477C10.3779 18.041 9.95683 18.8724 9.18493 19.7568C8.99154 19.9784 8.94552 20.2926 9.06722 20.5604C9.18892 20.8281 9.45589 21 9.75 21H16.25C16.5441 21 16.8111 20.8281 16.9328 20.5604C17.0545 20.2926 17.0085 19.9784 16.8151 19.7568C16.0432 18.8724 15.6221 18.041 15.523 17H19.25C20.2165 17 21 16.2165 21 15.25ZM19.5 7.75V15.25C19.5 15.3881 19.3881 15.5 19.25 15.5H6.75C6.61193 15.5 6.5 15.3881 6.5 15.25V7.75C6.5 7.61193 6.61193 7.5 6.75 7.5H19.25C19.3881 7.5 19.5 7.61193 19.5 7.75ZM14.0178 17H11.9822C11.9139 17.9377 11.651 18.7473 11.2173 19.5H14.7827C14.349 18.7473 14.0861 17.9377 14.0178 17Z" fill="#0075ff"/>
</svg>
